cfmoto/public/img/icons/time-footer.svg

<svg width="28" height="27" viewBox="0 0 28 27" fill="none" xmlns="http://www.w3.org/2000/svg">
<path fill-rule="evenodd" clip-rule="evenodd" d="M14 2.4165C7.6165 2.4165 2.5 7.41037 2.5 13.4998C2.5 19.5893 7.6165 24.5832 14 24.5832C20.3835 24.5832 25.5 19.5893 25.5 13.4998C25.5 7.41037 20.3835 2.4165 14 2.4165ZM0.5 13.4998C0.5 6.24243 6.57638 0.416504 14 0.416504C21.4236 0.416504 27.5 6.24243 27.5 13.4998C27.5 20.7572 21.4236 26.5832 14 26.5832C6.57638 26.5832 0.5 20.7572 0.5 13.4998Z" fill="white"/>
<path fill-rule="evenodd" clip-rule="evenodd" d="M14 5.25C14.5523 5.25 15 5.69772 15 6.25V13.7076C15 13.7077 15 13.7075 15 13.7076C15.0001 14.0721 15.1497 14.4289 15.4274 14.6973L18.445 17.6143C18.8421 17.9982 18.8528 18.6313 18.469 19.0284C18.0851 19.4254 17.4521 19.4362 17.055 19.0523L14.0376 16.1355C14.0376 16.1355 14.0376 16.1355 14.0376 16.1355C13.3777 15.4977 13.0002 14.6252 13 13.7081V6.25C13 5.69772 13.4477 5.25 14 5.25Z" fill="white"/>
</svg>

<svg width="28" height="27" fill="none" xmlns="http://www.w3.org/2000/svg"><path fill-rule="evenodd" clip-rule="evenodd" d="M14 2.417C7.617 2.417 2.5 7.41 2.5 13.5S7.617 24.583 14 24.583c6.384 0 11.5-4.994 11.5-11.083 0-6.09-5.116-11.084-11.5-11.084zM.5 13.5C.5 6.242 6.576.417 14 .417S27.5 6.242 27.5 13.5c0 7.257-6.076 13.083-13.5 13.083S.5 20.757.5 13.5z" fill="#fff"/><path fill-rule="evenodd" clip-rule="evenodd" d="M14 5.25a1 1 0 011 1v7.458c0 .364.15.72.427.99l3.018 2.916a1 1 0 01-1.39 1.438l-3.017-2.916A3.377 3.377 0 0113 13.707V6.25a1 1 0 011-1z" fill="#fff"/></svg>
